!!!!SEGMENT: pl-kk--kk-i-382--019-003_anonim--nro-6-agnus.krn
!!!cenid: 18xx:1489
!!!COM: Anonim
!!!COM-rismid: pe30004985
!!!CDT:
!!!CNT:
!!!OPR: Nro 6
!!!OTL: Agnus
!!!OMV: 006
!!!PDT:
!!!AGN: Sacred
!!!SMS-siglum: PL-Kk
!!!SMS-shelfmark: Kk.I.382
!!!SMS-shelfwork: 006-006 M
!!!SMS-variant:
!!!SMS-altvar:
!!!NIFC-rismid: 1001139135
!!!URL-scan: http://repozytorium.nifc.pl/skany/pl-kk-nut--i-382
!!!ONB-nifc: UWAGA: obsada: S (T 1), A (B 1), T 2, B 2; S (T 1): skan 0019; A (B 1): skan 0164; T 2: skan 0090; B 2: skan 0236
**kern	**text	**dynam	**kern	**text	**kern	**text	**kern	**text
*part4	*part4	*part4	*part3	*part3	*part2	*part2	*part1	*part1
*staff4	*staff4	*	*staff3	*staff3	*staff2	*staff2	*staff1	*staff1
*I"Basso II	*	*	*I"Tenore II	*	*I"Alto vel Basso I	*	*I"Soprano vel Tenore I.	*
*I'B 2	*	*	*I'T 2	*	*I'A (B 1)	*	*I'S (T 1)	*
*clefF4	*	*	*clefC4	*	*clefC3	*	*clefC1	*
*k[b-]	*	*	*k[b-]	*	*k[b-]	*	*k[b-]	*
*F:	*	*	*F:	*	*F:	*	*F:	*
*M4/4	*	*	*M4/4	*	*M4/4	*	*M4/4	*
*met(C.)	*	*	*met(C.)	*	*met(C.)	*	*met(C.)	*
=1	=1	=1	=1	=1	=1	=1	=1	=1
*2\right	*	*	*2\right	*	*2\right	*	*2\right	*
!LO:TX:t=P:problem:all\right:global	!	!	!LO:TX:t=P:problem:all\right:global	!	!LO:TX:t=P:problem:all\right:global	!	!LO:TX:t=P:problem:all\right:global	!
!LO:TX:a:t=Agnus.	!	!	!LO:TX:a:t=Agnus.	!	!LO:TX:a:t=Agnus	!	!LO:TX:a:t=Agnus.	!
!LO:TX:a:t=P:problem:napis "Agnus." na pięciolinii przed kluczem	!	!	!LO:TX:a:t=P:problem:napis "Agnus." przed kluczem	!	!LO:TX:a:t=P:problem:napis "Agnus" przed kluczem	!	!LO:TX:a:t=P:problem:napis "Agnus." na pięciolinii przed kluczem	!
2F\	A-	.	(>4c\	A-	(>4f\	A-	(>4a\	A-
.	.	.	4B-\)	.	4g\)	.	4b-\)	.
2F\	-gnus	.	(>4A\	-gnus	(>4a\	-gnus	(>4cc\	-gnus
.	.	.	4G\)	.	4b-\)	.	4dd\)	.
=2	=2	=2	=2	=2	=2	=2	=2	=2
2F\	De-	.	(>4A\	De-	(>4a\	De-	(>4cc\	De-
.	.	.	4B-\)	.	4g\)	.	4b-\)	.
4F\	-i	.	4c\	-i	4f\	-i	4a\	-i
4F\	qui	.	4A\	qui	4a\	qui	4cc\	qui
=3	=3	=3	=3	=3	=3	=3	=3	=3
1C	tol-	.	1c	tol-	4g\	tol-	4b-\	tol-
.	.	.	.	.	4f\	.	4a\	.
.	.	.	.	.	4g\	.	4b-\	.
.	.	.	.	.	4e\	.	4g\	.
=4	=4	=4	=4	=4	=4	=4	=4	=4
4F\	-lis	.	4c\	-lis	4f\	-lis	4a\	-lis
4F\	pe[c]-	.	4c\	pec-	4f\	pec-	4a\	pec-
4F\	-ca-	.	4B-\	-ca-	4b-\	-ca-	4dd\	-ca-
4F#X\	-ta	.	4c\	-ta	4a\	-ta	4cc\	-ta
!	!	!	!	!	!	!	!LO:LB:g=original	!
=5	=5	=5	=5	=5	=5	=5	=5	=5
2G\	mun-	.	2d\	mun-	2g\	mun-	2bn\	mun-
2G\	-di	.	2d\	-di	2g\	-di	2b\	-di
!	!	!	!	!	!LO:LB:g=original	!	!	!
=6	=6	=6	=6	=6	=6	=6	=6	=6
!	!	!	!	!	!LO:TX:a:t=2.	!	!	!
!	!	!	!	!	!LO:N:vis=0	!	!	!
2G\	mi-	.	(>4G\	mi-	0r	.	(>4bn\	mi-
.	.	.	4A\)	.	.	.	4cc\)	.
2G\	-se-	.	(>4Bn\	-se-	.	.	(>4dd\	-se-
.	.	.	4c\)	.	.	.	4ee\)	.
=7	=7	=7	=7	=7	=7	=7	=7	=7
2G\	-re-	.	(>4d\	-re-	.	.	(>4ff\	-re-
.	.	.	4c\)	.	.	.	4ee\)	.
!LO:TX:i:a:t=V[olti]&colon; S[ubito]&colon;	!	!	!	!	!	!	!	!
!LO:TX:a:t=P:problem:napis za kreską taktową	!	!	!	!	!	!	!	!
2G\	-re	.	2Bn\	-re	.	.	2dd\	-re
!LO:PB:g=original	!	!	!LO:LB:g=original	!	!	!	!	!
=8	=8	=8	=8	=8	=8	=8	=8	=8
4C\	mi-	.	4c\	mi-	4g\	mi-	4ee\	mi-
4D\	-se-	.	4c\	-se-	4f\	-se-	4dd\	-se-
4E\	-re-	.	4c\	-re-	4g\	-re-	4ee\	-re-
4F\	-re	.	4Bn\	-re	4a\	-re	4ff\	-re
=9	=9	=9	=9	=9	=9	=9	=9	=9
1G	no-	.	2c\	no-	(>2g\	no-	(>2ee\	no-
.	.	.	2Bn\	.	2f\)	.	2dd\)	.
=10	=10	=10	=10	=10	=10	=10	=10	=10
2C/	-bis	.	2G/	-bis	2e\	-bis	2cc\	-bis
4F\	mi-	.	4c\	mi-	4a\	mi-	4ff\	mi-
4F\	-se-	.	4A\	-se-	4a\	-se-	4cc\	-se-
!	!	!	!	!	!	!	!LO:LB:g=original	!
=11	=11	=11	=11	=11	=11	=11	=11	=11
2.BB-/	-re-	.	2F/	-re-	(>4b-\	-re-	(>4dd\	-re-
.	.	.	.	.	4a\)	.	4cc\)	.
.	.	.	2F/	-re	(>4g\	-re	(>4b-X\	-re
4BBn/	-re	.	.	.	4f\)	.	4a\)	.
=12	=12	=12	=12	=12	=12	=12	=12	=12
2C/	no-	.	[>1c	no-	2e\	no-	2g\	no-
2F\	.	.	.	.	2f\	.	[>2a\	.
=13	=13	=13	=13	=13	=13	=13	=13	=13
1C	.	.	1c]	.	2f\	.	2a\]	.
.	.	.	.	.	2e\	.	2g\	.
=14	=14	=14	=14	=14	=14	=14	=14	=14
1F	-bis.	.	1c	-bis.	1f	-bis	1a	-bis.
!LO:LB:g=original	!	!	!LO:LB:g=original	!	!LO:LB:g=original	!	!LO:LB:g=original	!
==15	==15	==15	==15	==15	==15	==15	==15	==15
*	*	*	*	*	*	*	*k[b-]	*
*M3/2	*	*	*M3/2	*	*M3/2	*	*M3/2	*
*	*	*	*rscale:1/2	*	*	*	*rscale:1/2	*
!	!	!	!LO:TX:t=P:problem:fragment trójdzielny zapisany w metrum 3/4 i o połowę krótszymi wartościami	!	!LO:TX:a:t=P:problem:napis "Agnus" przed kluczem	!	!LO:TX:t=P:problem:fragment trójdzielny zapisany w metrum 3/4 i o połowę krótszymi wartościami	!
!	!	!	!	!	!LO:TX:a:t=Agnus	!	!	!
2F\	A-	.	1c	A-	1a	A-	1ff	A-
2A\	.	.	.	.	.	.	.	.
2F\	-gnus	.	2c\	-gnus	2a\	-gnus	2ff\	-gnus
=16	=16	=16	=16	=16	=16	=16	=16	=16
2C/	De-	.	2c\	De-	2g\	De-	2ee\	De-
2E\	-i	.	2c\	-i	2g\	-i	2ee\	-i
2C/	qui	.	2c\	qui	2g\	qui	2ee\	qui
=17	=17	=17	=17	=17	=17	=17	=17	=17
4F\	tol-	.	2c\	tol-	2a\	tol-	2ff\	tol-
4A\	.	.	.	.	.	.	.	.
4c\	.	.	2c\	-lis	2a\	-lis	2ff\	-lis
4A\	.	.	.	.	.	.	.	.
2F\	-lis	.	2c\	pec-	2a\	pec-	2ff\	pec-
=18	=18	=18	=18	=18	=18	=18	=18	=18
2E\	pe[c]-	.	1B-	-ca-	1g	-ca-	(>2cc\	-ca-
2C/	-ca-	.	.	.	.	.	2ee\)	.
2F\	-ta	.	2c\	-ta	2a\	-ta	2ff\	-ta
=19	=19	=19	=19	=19	=19	=19	=19	=19
1C	mun-	.	1c	mun-	(>1g	mun-	(>1ee	mun-
2BBn/	.	.	2Bn\	.	2a\)	.	2ff\)	.
=20	=20	=20	=20	=20	=20	=20	=20	=20
1.C	-di.	.	1.c	-di	1.g	-di.	1.ee	-di.
!LO:LB:g=original	!	!	!	!	!LO:LB:g=original	!	!LO:LB:g=original	!
==21	==21	==21	==21	==21	==21	==21	==21	==21
*	*	*	*	*	*	*	*k[b-]	*
*M4/4	*	*	*M4/4	*	*M4/4	*	*M4/4	*
*met(C.)	*	*	*met(C.)	*	*met(C.)	*	*met(C.)	*
*	*	*	*rscale:1	*	*	*	*rscale:1	*
!LO:TX:a:t=Dona	!	!	!	!	!LO:TX:a:t=Dona	!	!LO:TX:a:t=Dona.	!
!LO:TX:a:t=P:problem:napis "Dona" przed kluczem	!	!	!	!	!LO:TX:a:t=P:problem:napis "Dona." przed kluczem	!	!LO:TX:a:t=P:problem:napis "Dona." na pięciolinii przed kluczem	!
4.F\	Do-	.	4.c\	Do-	4.a\	Do-	4.cc\	Do-
8B-\	-na	.	8c\	-na	8b-\	-na	8dd\	-na
4c\	no-	.	4c\	no-	4a\	no-	4cc\	no-
4C/	-bis	.	4c\	-bis	4g\	-bis	4b-\	-bis
!	!	!	!LO:LB:g=original	!	!	!	!	!
=22	=22	=22	=22	=22	=22	=22	=22	=22
4F\	pa-	.	4c\	pa-	4g\	pa-	4b-\	pa-
4F\	-cem	.	4c\	-cem	4f\	-cem	4a\	-cem
4F\	do-	.	4c\	do-	4a\	do-	4cc\	do-
4F\	-na	.	4c\	-na	4f\	-na	4a\	-na
=23	=23	=23	=23	=23	=23	=23	=23	=23
4C/	no-	.	4c\	no-	4e\	no-	4g\	no-
4C/	-bis	.	4c\	-bis	4f\	-bis	4a\	-bis
(>4E\	pa-	.	2c\	pa-	(>8a\L	pa-	(>8cc\L	pa-
.	.	.	.	.	8g\	.	8b-\	.
4C/)	.	.	.	.	8f\	.	8a\	.
.	.	.	.	.	8e\J)	.	8g\J)	.
=24	=24	=24	=24	=24	=24	=24	=24	=24
2F\	-cem	.	2c\	-cem	2f\	cem	2a\	-cem
!LO:TX:a:t=P:problem:oznaczenie dynamiczne na pięciolinii przed nutą	!	!LO:DY:b:t=p.:rj	!	!	!	!	!	!
4d\	do-	p	4d\	do-	2r	.	4ff\	do-
4c\	-na	.	4c\	-na	.	.	4ee\	-na
!	!	!	!	!	!	!	!LO:LB:g=original	!
=25	=25	=25	=25	=25	=25	=25	=25	=25
!	!	!	!	!	!LO:TX:a:t=1.	!	!	!
4Bn\	no-	.	4Bn\	no-	1r	.	4dd\	no-
4c\	-bis	.	4c\	-bis	.	.	4ee\	-bis
(4B\	pa-	.	(>4B\	pa-	.	.	(>4dd\	pa-
4A\)	.	.	4A\)	.	.	.	4cc\)	.
!LO:LB:g=original	!	!	!	!	!LO:LB:g=original	!	!	!
=26	=26	=26	=26	=26	=26	=26	=26	=26
2G\	-cem	.	2G/	-cem	2r	.	2bn\	-cem
!LO:TX:a:t=P:problem:oznaczenie dynamiczne na pięciolinii przed nutą	!	!LO:DY:b:t=f.:rj	!	!	!	!	!	!
4C/	do-	f	4e\	do-	4g\	do-	2r	.
4D/	-na	.	4d\	-na	4f\	-na	.	.
=27	=27	=27	=27	=27	=27	=27	=27	=27
!	!	!	!	!	!	!	!LO:TX:b:t=1.	!
4E\	no-	.	4c\	no-	4e\	no-	1r	.
4F\	-bis	.	4d\	-bis	4f\	-bis	.	.
(>4G\	pa-	.	(>4c\	pa-	(>4e\	pa-	.	.
4GG/)	.	.	4Bn\)	.	4d\)	.	.	.
!	!	!	!LO:LB:g=original	!	!	!	!	!
=28	=28	=28	=28	=28	=28	=28	=28	=28
2C/	-cem	.	2c\	-cem	2e\	-cem	2r	.
4F\	do-	.	4A\	do-	4f\	do-	4ff\	do-
4F\	-na	.	4c\	-na	4a\	-na	4cc\	-na
=29	=29	=29	=29	=29	=29	=29	=29	=29
4BB-/	no-	.	4d\	no-	4b-\	no-	4dd\	no-
4BB-/	-bis	.	4d\	-bis	4a\	-bis	4cc\	-bis
(<4BB-/	pa-	.	2d\	pa-	(>4g\	pa-	(>4b-X\	pa-
4BBn/)	.	.	.	.	4f\)	.	4a\)	.
=30	=30	=30	=30	=30	=30	=30	=30	=30
2C/	-cem	.	2c\	-cem	2e\	-cem	2g\	-cem
(>2C/	do-	.	4e\	do-	(>2g\	do-	(>2b-X\	do-
.	.	.	4e\	-na	.	.	.	.
!LO:LB:g=original	!	!	!	!	!LO:LB:g=original	!	!LO:LB:g=original	!
=31	=31	=31	=31	=31	=31	=31	=31	=31
4F\)	.	.	2c\	no-	4f\)	.	4a\)	.
4E\	-na	.	.	.	4g\	-na	4b-\	-na
4F\	no-	.	2c\	-bis	4a\	no-	4cc\	no-
4BB-/	-bis	.	.	.	8b-\L	-bis	(>8dd\L	-bis
.	.	.	.	.	8g\J	.	8b-\J)	.
=32	=32	=32	=32	=32	=32	=32	=32	=32
1C	pa-	.	1c	pa-	(>2f\	pa-	(>2a\	pa-
.	.	.	.	.	2e\)	.	2g\)	.
=33	=33	=33	=33	=33	=33	=33	=33	=33
1F	cem.	.	1c	-cem.	1f	-cem.	1a	-cem.
==	==	==	==	==	==	==	==	==
*-	*-	*-	*-	*-	*-	*-	*-	*-
!!!system-decoration: [(s1,s2,s3,s4)]
!!!RDF**kern: > = above
!!!RDF**kern: < = below
!!!EED: Mateusz Mrugas
!!!EST: 2021-02-04
!!!ENC: Krzysztof Stępień
!!!END: 2021-01-28
